mimetypes/symbolic/package-x-generic-symbolic.svg

<svg height="16" viewBox="0 0 16 16" width="16" xmlns="http://www.w3.org/2000/svg"><path d="m3.4133333 3.333333h9.1666667l-.626667-.666666h-7.9999997zm10.2799997.153334c.193334.226666.306667.513333.306667.846666v8.333334a1.3333333 1.3333333 0 0 1 -1.333333 1.333333h-9.3333337a1.3333333 1.3333333 0 0 1 -1.3333333-1.333333v-8.333334c0-.333333.1133333-.62.3066667-.846666l.92-1.12c.1866666-.226667.46-.366667.7733333-.366667h8c .313333 0 .586667.14.766667.366667zm-9.693333 8.513333h4v-2h-4z" fill="#bebebe"/></svg>

<?xml version="1.0" encoding="UTF-8" standalone="no"?>
<svg
   xmlns:dc="http://purl.org/dc/elements/1.1/"
   xmlns:cc="http://creativecommons.org/ns#"
   xmlns:rdf="http://www.w3.org/1999/02/22-rdf-syntax-ns#"
   xmlns:svg="http://www.w3.org/2000/svg"
   xmlns="http://www.w3.org/2000/svg"
   xmlns:sodipodi="http://sodipodi.sourceforge.net/DTD/sodipodi-0.dtd"
   xmlns:inkscape="http://www.inkscape.org/namespaces/inkscape"
   version="1.1"
   width="16"
   height="16"
   viewBox="0 0 16 16"
   id="svg2"
   inkscape:version="0.91 r13725"
   sodipodi:docname="package-x-generic-symbolic.svg">
  <metadata
     id="metadata10">
    <rdf:RDF>
      <cc:Work
         rdf:about="">
        <dc:format>image/svg+xml</dc:format>
        <dc:type
           rdf:resource="http://purl.org/dc/dcmitype/StillImage" />
        <dc:title></dc:title>
      </cc:Work>
    </rdf:RDF>
  </metadata>
  <defs
     id="defs8" />
  <sodipodi:namedview
     pagecolor="#ffffff"
     bordercolor="#666666"
     borderopacity="1"
     objecttolerance="10"
     gridtolerance="10"
     guidetolerance="10"
     inkscape:pageopacity="0"
     inkscape:pageshadow="2"
     inkscape:window-width="640"
     inkscape:window-height="480"
     id="namedview6"
     showgrid="false"
     inkscape:zoom="26.458333"
     inkscape:cx="-1.4551182"
     inkscape:cy="12"
     inkscape:current-layer="svg2" />
  <path
     d="m 3.4133333,3.333333 9.1666667,0 -0.626667,-0.666666 -7.9999997,0 -0.54,0.666666 M 13.693333,3.486667 C 13.886667,3.713333 14,4 14,4.333333 l 0,8.333334 A 1.3333333,1.3333333 0 0 1 12.666667,14 L 3.3333333,14 A 1.3333333,1.3333333 0 0 1 2,12.666667 L 2,4.333333 C 2,4 2.1133333,3.713333 2.3066667,3.486667 l 0.92,-1.12 C 3.4133333,2.14 3.6866667,2 4,2 l 8,0 c 0.313333,0 0.586667,0.14 0.766667,0.366667 l 0.926666,1.12 M 4,12 l 4,0 0,-2 -4,0 0,2 z"
     id="path4"
     style="fill:#bebebe;fill-opacity:1"
     inkscape:connector-curvature="0" />
</svg>
